X: 138
T: Missa Tandernaken / Gloria
N: Derived from Rue1030b-Missa_Tandernaken-Gloria.krn
C: Pierre de la Rue
%%abc-version 2.0
%%abcx-abcm2ps-target-version 5.9.1 (29 Sep 2008)
%%abc-creator hum2abc beta
%%abcx-conversion-date 2019/02/17 08:01:15
%%abc-edited-by Jesse Rodin
%%abc-edited-by Chris Gage 05-24-2013
%%abcx-initial-encoding-date 2013/08/04/
%%humdrum-veritas 4187536430
%%humdrum-veritas-data 3089406594
%%linebreak <none>
%%barnumbers 0
L: 1/4
M: 2/1
Q: 1/2=120
%%staves [1 2 3 4]
V: 1 clef=treble
V: 2 clef=treble-8
V: 3 clef=treble-8
V: 4 clef=bass
K: F
[V:1] A3AA2A2 | 
[V:2] d3dd2d2 | 
[V:3] A8- | 
[V:4] D,3D,D,2D,2 | 
[V:1] F2F2E2E2 | 
[V:2] d2D2E2E2 | 
[V:3] A8 | 
[V:4] D,2D,2C,2C,2 | 
[V:1] D2G2A2F2 | 
[V:2] F2D2F2A2 | 
[V:3] B4A4 | 
[V:4] B,,4z4 | 
[V:1] GFEDE4 | 
[V:2] B4B4 | 
[V:3] G8 | 
[V:4] z8 | 
[V:1] F8- | 
[V:2] A2A2B2B2 | 
[V:3] F8 | 
[V:4] z2D,2D,2D,2 | 
[V:1] F8 | 
[V:2] A2A2A2F2 | 
[V:3] F4A4- | 
[V:4] F,8- | 
[V:1] z4z2A2 | 
[V:2] A3Bc4 | 
[V:3] A4A4 | 
[V:4] F,8 | 
[V:1] A2F2A2=B2 | 
[V:2] z8 | 
[V:3] d8 | 
[V:4] z8 | 
[V:1] c2A4A2 | 
[V:2] z8 | 
[V:3] c4A4 | 
[V:4] z8 | 
[V:1] G2G4G2 | 
[V:2] z4z2d2 | 
[V:3] B8 | 
[V:4] z8 | 
[V:1] A4z2E2 | 
[V:2] f2e2d2c2 | 
[V:3] A8 | 
[V:4] z4D,2A,,2 | 
[V:1] F2E2D2C2 | 
[V:2] d2c2f3e | 
[V:3] A4A4- | 
[V:4] D,2A,,2D,2A,,2 | 
[V:1] F2F2E4 | 
[V:2] d2D2E2E2 | 
[V:3] A4A4 | 
[V:4] D,4A,,4 | 
[V:1] z2A2G2A2 | 
[V:2] E2F2E2F2 | 
[V:3] c8 | 
[V:4] z8 | 
[V:1] G2E2F3G | 
[V:2] E2C2z4 | 
[V:3] c4A4- | 
[V:4] z8 | 
[V:1] A4D4 | 
[V:2] z2F2F2F2 | 
[V:3] A4A4 | 
[V:4] D,3D,D,2D,2 | 
[V:1] z8 | 
[V:2] A2A2D2D2 | 
[V:3] F8 | 
[V:4] D,2D,4B,,2 | 
[V:1] z4D2E2 | 
[V:2] C4z4 | 
[V:3] F4G4- | 
[V:4] A,,2A,,2G,,4- | 
[V:1] D2G4G2 | 
[V:2] z8 | 
[V:3] G4G4 | 
[V:4] G,,4B,,3B,, | 
[V:1] c2c2c2A2 | 
[V:2] z8 | 
[V:3] A8 | 
[V:4] A,,4A,,4 | 
[V:1] B3cA4 | 
[V:2] z2GABcd2- | 
[V:3] G4F4 | 
[V:4] z8 | 
[V:1] G4z4 | 
[V:2] d2^c=B^c4 | 
[V:3] E8 | 
[V:4] z8 | 
[V:1] z2A2A2A2 | 
[V:2] d8- | 
[V:3] D8 | 
[V:4] z8 | 
[V:1] F2D2F3G | 
[V:2] d8 | 
[V:3] D4D4- | 
[V:4] z2A,2A,2A,2 | 
[V:1] A8- | 
[V:2] z8 | 
[V:3] D4D4 | 
[V:4] F,2D,2F,3G, | 
[V:1] A8 | 
[V:2] z2d2c2c2 | 
[V:3] F8 | 
[V:4] A,8 | 
[V:1] z8 | 
[V:2] d2f2f2d2 | 
[V:3] F4F4- | 
[V:4] z8 | 
[V:1] z4z2A2- | 
[V:2] c4d2d2 | 
[V:3] F4F4 | 
[V:4] z4D,3D, | 
[V:1] AAA2c2c2 | 
[V:2] c2A4A2 | 
[V:3] c8 | 
[V:4] A,,4A,,2A,,2 | 
[V:1] G2G2A2F2- | 
[V:2] D2D2D4 | 
[V:3] B4A4 | 
[V:4] B,,2G,,2D,2F,2 | 
[V:1] F2EDE4 | 
[V:2] E2C2c4 | 
[V:3] G8 | 
[V:4] C,8 | 
[V:1] F8- | 
[V:2] z2B2A2BB | 
[V:3] F8 | 
[V:4] D,4z2B,,2 | 
[V:1] F8 | 
[V:2] c2d2f2f2 | 
[V:3] F4F4- | 
[V:4] A,,2B,,2D,2D,2 | 
[V:1] z8 | 
[V:2] d2B2c2c2 | 
[V:3] F4F4 | 
[V:4] B,,4z4 | 
[V:1] z2A2A2A2 | 
[V:2] A2A2F4 | 
[V:3] c8 | 
[V:4] z8 | 
[V:1] G2A2c2c2 | 
[V:2] z4z2c2 | 
[V:3] c4A4- | 
[V:4] z2A,,2A,,2A,,2 | 
[V:1] A4z4 | 
[V:2] c2ccc2c2 | 
[V:3] A4A4 | 
[V:4] C,2C,2A,,4 | 
[V:1] G4D4 | 
[V:2] d2G2G4 | 
[V:3] B8 | 
[V:4] z2G,,2G,,4 | 
[V:1] D4C2E2 | 
[V:2] G4E4 | 
[V:3] B4A4- | 
[V:4] G,,4A,,2A,,2 | 
[V:1] F2F2E2C2 | 
[V:2] z4z2e2 | 
[V:3] A4A4 | 
[V:4] D,2D,2A,,2C,2 | 
[V:1] D2F3GA=B | 
[V:2] f2f2f2d2 | 
[V:3] d8 | 
[V:4] B,,2B,,2D,2D,2 | 
[V:1] cAc4=BA | 
[V:2] e4c4 | 
[V:3] c4A4 | 
[V:4] A,,2A,,2C,4 | 
[V:1] G3FG4 | 
[V:2] d4D4 | 
[V:3] B8 | 
[V:4] B,,4G,,4 | 
[V:1] A8- | 
[V:2] z4F4- | 
[V:3] A8- | 
[V:4] z4D,4- | 
[V:1] A8 | 
[V:2] F4E4 | 
[V:3] A8- | 
[V:4] D,4A,,4 | 
[V:1] A8 |]  
[V:2] E8 |]  
[V:3] A8 |]  
[V:4] A,,8 |]  



